X: 166
T: I Wish to Roam
C: Teton Sioux band 1911-1914
N: Derived from sioux161.krn
O: South Dakota, U.S.A.
N: Teton Sioux Music by Frances Densmore, 1918
Z: transcribed to **kern format by Craig Sapp
L: 1/8
M: 2/4
Q: 1/4=58
K: F clef=bass
%%linebreak <none>
D< D E/ [I:setbarnb 1]| 
D2A,3/ B,/ | 
A,2A,3/ A,/ | 
A,4- | 
A,> C C3/ D/ | 
C2A,3/ A,/ ||  
[M:3/4]G,2F,> F, D,3/ D,/ ||  
[M:2/4]F,4- ||  
[M:3/4]F,> D, D,> G, G,3/ F,/ | 
G,> G, F,> F, D,3/ D,/ ||  
[M:2/4]D,4- | 
D,> D, D,3/ F,/ | 
F,> F, D,3/ D,/ | 
D,4 | 
D,4- | 
D,> C A,3/ C/ ||  
[M:3/4]A,2A,> A,A,2 | 
A,2>>C2 C3/ C/ ||  
[M:2/4]C2A,3/ B,/ ||  
[M:3/4]G,2F,> F, D,3/ D,/ | 
F,4-F,3/ D,/ ||  
[M:2/4]D,> G, (G,3/ F,/) | 
G,> G,F,2 ||  
[M:3/4]D,> D, D, D, D,3/ D,/ | 
D,2>>D,2 D,3/ F,/ ||  
[M:2/4]F,> F, D,3/ D,/ | 
D,4 | 
D,2z2 |]  



